assets/icons/Heart.svg

<svg viewBox="0 0 21 21" fill="none" xmlns="http://www.w3.org/2000/svg">
  <circle cx="10" cy="10" r="10" fill="#F54748" />
  <path
    d="M16.6613 7.45916C16.4441 6.97793 16.1309 6.54185 15.7392 6.17532C15.3472 5.80769 14.8851 5.51555 14.3779 5.31477C13.852 5.10575 13.288 4.99876 12.7185 5.00001C11.9195 5.00001 11.1401 5.20933 10.4627 5.60472C10.3006 5.6993 10.1467 5.80319 10.0008 5.91638C9.85495 5.80319 9.701 5.6993 9.53894 5.60472C8.86155 5.20933 8.08206 5.00001 7.28313 5.00001C6.70783 5.00001 6.15036 5.10545 5.62368 5.31477C5.11483 5.51634 4.65621 5.80629 4.26241 6.17532C3.87023 6.54143 3.55695 6.97762 3.34032 7.45916C3.11506 7.95999 3 8.49182 3 9.03916C3 9.55549 3.1102 10.0935 3.32897 10.6409C3.5121 11.0983 3.77463 11.5727 4.11008 12.0519C4.64162 12.8101 5.37249 13.6008 6.28 14.4025C7.78388 15.7313 9.27317 16.6492 9.33637 16.6864L9.72045 16.9221C9.8906 17.026 10.1094 17.026 10.2795 16.9221L10.6636 16.6864C10.7268 16.6476 12.2145 15.7313 13.72 14.4025C14.6275 13.6008 15.3584 12.8101 15.8899 12.0519C16.2254 11.5727 16.4895 11.0983 16.671 10.6409C16.8898 10.0935 17 9.55549 17 9.03916C17.0016 8.49182 16.8865 7.95999 16.6613 7.45916Z"
    fill="#FDC55E" />
</svg>

<svg viewBox="0 0 21 21" fill="none" xmlns="http://www.w3.org/2000/svg">
  <circle cx="10" cy="10" r="10" fill="#F54748" />
  <path
    d="M16.661 7.46a4.03 4.03 0 00-.922-1.285 4.305 4.305 0 00-1.361-.86A4.469 4.469 0 0012.718 5c-.799 0-1.578.21-2.255.605a4.23 4.23 0 00-.462.311 4.23 4.23 0 00-.462-.311A4.476 4.476 0 007.283 5a4.47 4.47 0 00-1.66.315 4.296 4.296 0 00-1.36.86A4.007 4.007 0 003.34 7.46C3.115 7.96 3 8.492 3 9.04c0 .516.11 1.055.329 1.602.183.457.446.932.781 1.41.532.76 1.262 1.55 2.17 2.351a24.17 24.17 0 003.056 2.284l.384.236a.54.54 0 00.56 0l.384-.236c.063-.038 1.55-.955 3.056-2.284.907-.801 1.638-1.592 2.17-2.35.335-.48.6-.954.781-1.411A4.318 4.318 0 0017 9.039a3.803 3.803 0 00-.339-1.58z"
    fill="#FDC55E" />
</svg>
